X:437
T:Over the Sea to Skye
T:The Skye Boat Song
S:Childhood memories
Z:Nigel Gatherer
M:3/4
L:1/4
K:G
D>ED | G2 G | A>BA | d3 | B>AB | E2 E | D2 | D3 :|
B>GB | B3 | A>EA | A3 | G>EG | G2 G | E3 | E3 |
B>GB | B3 | A>EA | A3 | G>EG | G2 G | E3 | D3 ||
D>ED | G2 G | A>BA | d3 | B>AB | E2 E | D2 | D3 |]
